X:1
T:No.37 Stirling Castle
T:No.37 Stirling Castle
T:strathspey
C:strathspey
L:1/8
M:4/4
K:D
V:1 treble 
V:1
 D2 F>A D>A F<A | A,2 C>E A,>E C<E | D2 F>A D>A F<A | (3Bcd (3efg (3fed (3cBA | D2 F>A D>A F<A | %5
 A,2 C>E A,>E C<E | D2 F>A D>A F<A | (3Bcd (3efg (3fdd d>c || d2 f<a g>e f>d | B2 g>f (3efd (3cBA | %10
 d2 f<a g>e f>d | (3Bcd (3efg (3fdd d>c | d2 f<a g>e f>d | B2 g>f (3efd (3cBA | %14
 (3fga (3gfe (3dcB (3AGF | (3GAB (3ABc (3dAG (3FGE || %16

